fs/save_20_regular.svg

<svg viewBox="0 0 20 20" fill="none" xmlns="http://www.w3.org/2000/svg" height="1em" width="1em">
  <path d="M3 5C3 3.89543 3.89543 3 5 3H13.3787C13.9091 3 14.4178 3.21071 14.7929 3.58579L16.4142 5.20711C16.7893 5.58218 17 6.09089 17 6.62132V15C17 16.1046 16.1046 17 15 17H5C3.89543 17 3 16.1046 3 15V5ZM5 4C4.44772 4 4 4.44772 4 5V15C4 15.5523 4.44772 16 5 16L5 11.5C5 10.6716 5.67157 10 6.5 10H13.5C14.3284 10 15 10.6716 15 11.5V16C15.5523 16 16 15.5523 16 15V6.62132C16 6.3561 15.8946 6.10175 15.7071 5.91421L14.0858 4.29289C13.8983 4.10536 13.6439 4 13.3787 4L13 4V6.5C13 7.32843 12.3284 8 11.5 8L7.5 8C6.67157 8 6 7.32843 6 6.5L6 4H5ZM7 4L7 6.5C7 6.77614 7.22386 7 7.5 7L11.5 7C11.7761 7 12 6.77614 12 6.5V4L7 4ZM14 16V11.5C14 11.2239 13.7761 11 13.5 11H6.5C6.22386 11 6 11.2239 6 11.5V16H14Z" fill="#212121"/>
</svg>

<svg viewBox="0 0 20 20" fill="none" xmlns="http://www.w3.org/2000/svg" height="1em" width="1em">
  <path d="M3 5a2 2 0 0 1 2-2h8.379a2 2 0 0 1 1.414.586l1.621 1.621A2 2 0 0 1 17 6.621V15a2 2 0 0 1-2 2H5a2 2 0 0 1-2-2V5Zm2-1a1 1 0 0 0-1 1v10a1 1 0 0 0 1 1v-4.5A1.5 1.5 0 0 1 6.5 10h7a1.5 1.5 0 0 1 1.5 1.5V16a1 1 0 0 0 1-1V6.621a1 1 0 0 0-.293-.707l-1.621-1.621A1 1 0 0 0 13.379 4H13v2.5A1.5 1.5 0 0 1 11.5 8h-4A1.5 1.5 0 0 1 6 6.5V4H5Zm2 0v2.5a.5.5 0 0 0 .5.5h4a.5.5 0 0 0 .5-.5V4H7Zm7 12v-4.5a.5.5 0 0 0-.5-.5h-7a.5.5 0 0 0-.5.5V16h8Z" fill="#212121"/>
</svg>
